build/img/icon-bem.svg

<svg width="69" height="60" viewBox="0 0 69 60" fill="none" xmlns="http://www.w3.org/2000/svg">
  <path d="M0 9.28583H16.1314V14.2858H0V9.28583ZM0 0H16.1314V4.99995H0V0ZM28.9423 18.5001H0V23.5H27.8577C30.9077 23.5 38.0244 23.5713 40.668 28.0714V25.2858C39.3801 20.857 35.5846 18.5001 28.942 18.5001H28.9423ZM29.0096 27.7856H0V32.7856H27.8577C34.6356 32.7856 38.9058 33.0713 40.668 34.0714V31.8571C39.3122 28.3571 33.6189 27.7856 29.0099 27.7856H29.0096ZM28.9423 51.357H0V46.357H27.8577C30.9077 46.357 38.0244 46.2857 40.668 41.7857V44.5712C39.3801 49 35.5846 51.357 28.942 51.357H28.9423ZM29.0096 42.0714H0V37.0715H27.8577C34.6356 37.0715 38.9058 36.7857 40.668 35.7856V38C39.3122 41.4999 33.6189 42.0714 29.0099 42.0714H29.0096ZM47.717 60H69V56.9284H48.327C46.4968 56.9284 42.1593 56.8571 40.6003 54.2141V55.9286C41.3458 58.5713 43.6503 60 47.717 60V60ZM47.6494 54.357H68.9323V51.2857H48.327C44.1923 51.2857 41.6167 51.1428 40.6 50.5V51.8571C41.4132 53.9999 44.8699 54.357 47.6491 54.357H47.6494Z" fill="#010101"/>
</svg>

<svg width="69" height="60" fill="none" xmlns="http://www.w3.org/2000/svg"><path d="M0 9.286h16.131v5H0v-5zM0 0h16.131v5H0V0zm28.942 18.5H0v5h27.858c3.05 0 10.166.071 12.81 4.571v-2.785C39.38 20.857 35.585 18.5 28.942 18.5zm.068 9.286H0v5h27.858c6.778 0 11.048.285 12.81 1.285v-2.214c-1.356-3.5-7.05-4.071-11.658-4.071zm-.068 23.571H0v-5h27.858c3.05 0 10.166-.071 12.81-4.571v2.785C39.38 49 35.585 51.357 28.942 51.357zm.068-9.286H0v-5h27.858c6.778 0 11.048-.285 12.81-1.285V38c-1.356 3.5-7.05 4.071-11.658 4.071zM47.717 60H69v-3.072H48.327c-1.83 0-6.168-.07-7.727-2.714v1.715C41.346 58.57 43.65 60 47.717 60zm-.068-5.643h21.283v-3.071H48.327c-4.135 0-6.71-.143-7.727-.786v1.357c.813 2.143 4.27 2.5 7.05 2.5z" fill="#010101"/></svg>
